X:1
T:James Gibb editions
T:Psalm 4 (Becker) - Schütz
%%score [ ( 1 2 ) ( 3 4 ) ]
L:1/8
Q:1/4=100
M:2/2
K:C
V:1 treble nm="Soprano Alto"
V:2 treble 
V:3 bass nm="Tenor Bass"
V:4 bass 
V:1
"^Cornelius Becker\n(1561-1604)""^Heinrich Schütz\n(1585-1672)" D4 F2 G2 | A4 A4 | %2
w: ~Er- hör mich,|wenn ich|
"^Psalm 4, SWV 100" B2 ^c2 d4 | d4 c2 B2 | A4 F4 | A2 G2 F4 |[M:2/2] D4 E2 F2 | G2 A2 _B4 | A8 | %9
w: ruf zu dir,|Herr Gott, der|du aus|Gna- den mir|ver- gibst all|mei- ne Sün-|de,|
 A4 G2 A2 | F4 _B4 | A2 _B2 G4 | c4 B2 c2 | A2 F2 E4 | D8 |] %15
w: schaffst Hilf und|Rat in|Angst und Not,|hilf, Herr, laß|mich G'nad fin-|den.|
V:2
 A,4 D2 E2 | F4 F4 | D2 G2 ^F4 | F4 E2 G2 | F4 D4 | C2 C2 C4 |[M:2/2] _B,4 G,2 C2 | D2 D2 D4 | D8 | %9
 C4 C2 C2 | _B,4 D4 | D2 D2 C4 | E4 E2 E2 | D2 D2 ^C4 | D8 |] %15
V:3
 F,4 A,2 C2 | C4 D4 | B,2 G,2 A,4 | A,4 A,2 G,2 | C4 _B,2 F,2- | F,2 E,2 F,4 |[M:2/2] F,4 E,2 A,2 | %7
 _B,2 A,2 G,4 | ^F,8 | F,4 E,2 F,2 | D,4 G,4 | %11
"^2. Ihr lieben Herr'n, was macht ihr doch, daß ihr mich schänd't an Ehre hoch,\nWahrheit wollt ihr nicht leiden, die Eitelkeit und Lügen, beid'\nsind eures Herzens Freude.\n\n3. Erkennet doch und nehmet wahr, wie Gott sein'n Heil'gen wunderbar\ndurch Schmach zu Ehren führet, mein sehnlich Bitt verschmäht er nit,\nsein treues Herz sie rühret.\n\n4. Trübsal das Fleisch zu Zorn bewegt, ein Christ sich doch darwider legt,\nfaßt in Geduld sein Seele. Erkennt sein' Schuld, traut Gottes Huld,\nso bringt's ihm wen'ger Quäle.\n\n5. Was? Sprechen die Weltkinder frei, sollt' uns der lehren, was gut sei,\nund an'dern Weisung geben? Wir wissen's auch, aus langem Brauch,\npreisen ein sicher Leben.\n\n6. Du aber, Herr, dein Angesicht üb'r uns erheb mit hellem Licht,\nerfreu mein Herz in Gnaden, so bin ich reich, ob jene gleich\nWein und Korn vollauf haben.\n\n7. Mit meinem Gott geh ich zur Ruh und tu in Fried mein Augen zu,\ndenn Gott von's Himmels Throne über mich wacht bei Tag und Nacht,\nschafft, daß ich sicher wohne." ^F,2 G,2 E,4 | %12
 A,4 ^G,2 A,2 | F,2 A,2 A,4 | A,8 |] %15
V:4
 D,4 D,2 C,2 | F,4 D,4 | G,2 E,2 D,4 | D,4 A,,2 E,2 | F,4 _B,,4 | A,,2 C,2 F,,4 | %6
[M:2/2] _B,,4 C,2 A,,2 | G,,2 ^F,,2 G,,4 | D,8 | F,,4 C,2 A,,2 | _B,,4 G,,4 | D,2 G,,2 C,4 | %12
 A,,4 E,2 A,,2 | D,2 D,2 A,,4 | D,8 |] %15

